X:2
T:Alfred Montmarquette's
M:C
R:Reel
K:Em
"Em"E2 FG E2 FG | EFGA B2 z2 | efgf e2 B2 | efgf e2 "B7"B2 |
"Em"E2 FG E2 FG | EFGA B2 z2 | efgf e2 B2 | e2 B2 e2 z2 :|
|:"G"d2 ed B2 G2 | g2 g2 f2 e2 | "D7"DEFG ABcA | "G"GABc d2 Bc |
"G"d2 ed B2 G2 | g2 g2 f2 e2 |\
 "D7"DEFG ABcA |1 "G"GgdB G2 z2 :|2 "G"GgdB G2 "B7"F2 |]
